mobile/assets/icons/svgs/custom/telehealth-dark.svg

<svg fill="none" height="500" viewBox="0 0 500 500" width="500" xmlns="http://www.w3.org/2000/svg"><g fill="#fff"><path d="m277.54 413.52h-109.72c-17 0-30.88-16.74-30.88-37.32l.11-255.09c1.29-19.9 14.51-34.63 30.77-34.63h109.72c17 0 30.88 16.74 30.88 37.32v62.4c.032.756-.089 1.511-.357 2.218-.267.708-.675 1.355-1.198 1.901-.524.546-1.153.981-1.849 1.278s-1.444.45-2.201.45-1.506-.153-2.202-.45c-.695-.297-1.324-.732-1.848-1.278-.523-.546-.931-1.193-1.198-1.901-.268-.707-.389-1.462-.357-2.218v-62.4c0-14.4-8.82-26.11-19.67-26.11h-109.72c-10.11 0-18.7 10.44-19.57 23.79l-.1 254.72c0 14.4 8.82 26.11 19.67 26.11h109.72c10.85 0 19.67-11.71 19.67-26.11v-63.75c-.032-.756.089-1.511.357-2.218.267-.708.675-1.355 1.198-1.901.524-.546 1.153-.981 1.848-1.278.696-.297 1.445-.45 2.202-.45s1.505.153 2.201.45 1.325.732 1.849 1.278c.523.546.931 1.193 1.198 1.901.268.707.389 1.462.357 2.218v63.75c0 20.58-13.85 37.32-30.88 37.32z"/><path d="m260.05 92.1h-74.72c-1.011 0-1.83.8193-1.83 1.83v16.88c0 1.011.819 1.83 1.83 1.83h74.72c1.011 0 1.83-.819 1.83-1.83v-16.88c0-1.0107-.819-1.83-1.83-1.83z"/><path d="m141.8 153.02h-6.89c-.414 0-.75.336-.75.75v43.97c0 .414.336.75.75.75h6.89c.414 0 .75-.336.75-.75v-43.97c0-.414-.336-.75-.75-.75z"/><path d="m141.8 211.42h-6.89c-.414 0-.75.336-.75.75v43.97c0 .414.336.75.75.75h6.89c.414 0 .75-.336.75-.75v-43.97c0-.414-.336-.75-.75-.75z"/></g><path d="m365.84 245.6c.006 12.783-3.494 25.322-10.118 36.254-6.625 10.932-16.12 19.839-27.453 25.751s-24.07 8.603-36.826 7.78c-12.757-.822-25.043-5.127-35.523-12.445-.88-.617-1.902-1.002-2.97-1.117s-2.149.042-3.14.457l-18.26 7.72 7.69-18.25c.419-.99.58-2.07.466-3.139s-.498-2.092-1.116-2.971c-6.285-9.003-10.362-19.359-11.9-30.23-1.539-10.871-.495-21.952 3.046-32.345s9.48-19.806 17.335-27.477c7.856-7.671 17.407-13.384 27.882-16.676 10.474-3.293 21.577-4.072 32.408-2.276 10.832 1.797 21.088 6.119 29.938 12.617 8.851 6.498 16.047 14.989 21.005 24.785s7.54 20.622 7.536 31.602z" fill="#daa900"/><path d="m329.67 234.35v22.51h-22.5v22.5h-22.5v-22.5h-22.5v-22.51h22.5v-22.5h22.5v22.5z" fill="#fff"/></svg>

<svg width="500" height="500" viewBox="0 0 500 500" fill="none" xmlns="http://www.w3.org/2000/svg">
<path d="M277.54 413.52H167.82C150.82 413.52 136.94 396.78 136.94 376.2L137.05 121.11C138.34 101.21 151.56 86.48 167.82 86.48H277.54C294.54 86.48 308.42 103.22 308.42 123.8V186.2C308.452 186.956 308.331 187.711 308.063 188.418C307.796 189.126 307.388 189.773 306.865 190.319C306.341 190.865 305.712 191.3 305.016 191.597C304.32 191.894 303.572 192.047 302.815 192.047C302.058 192.047 301.309 191.894 300.613 191.597C299.918 191.3 299.289 190.865 298.765 190.319C298.242 189.773 297.834 189.126 297.567 188.418C297.299 187.711 297.178 186.956 297.21 186.2V123.8C297.21 109.4 288.39 97.69 277.54 97.69H167.82C157.71 97.69 149.12 108.13 148.25 121.48L148.15 376.2C148.15 390.6 156.97 402.31 167.82 402.31H277.54C288.39 402.31 297.21 390.6 297.21 376.2V312.45C297.178 311.694 297.299 310.939 297.567 310.232C297.834 309.524 298.242 308.877 298.765 308.331C299.289 307.785 299.918 307.35 300.613 307.053C301.309 306.756 302.058 306.603 302.815 306.603C303.572 306.603 304.32 306.756 305.016 307.053C305.712 307.35 306.341 307.785 306.865 308.331C307.388 308.877 307.796 309.524 308.063 310.232C308.331 310.939 308.452 311.694 308.42 312.45V376.2C308.42 396.78 294.57 413.52 277.54 413.52Z" fill="white"/>
<path d="M260.05 92.1H185.33C184.319 92.1 183.5 92.9193 183.5 93.93V110.81C183.5 111.821 184.319 112.64 185.33 112.64H260.05C261.061 112.64 261.88 111.821 261.88 110.81V93.93C261.88 92.9193 261.061 92.1 260.05 92.1Z" fill="white"/>
<path d="M141.8 153.02H134.91C134.496 153.02 134.16 153.356 134.16 153.77V197.74C134.16 198.154 134.496 198.49 134.91 198.49H141.8C142.214 198.49 142.55 198.154 142.55 197.74V153.77C142.55 153.356 142.214 153.02 141.8 153.02Z" fill="white"/>
<path d="M141.8 211.42H134.91C134.496 211.42 134.16 211.756 134.16 212.17V256.14C134.16 256.554 134.496 256.89 134.91 256.89H141.8C142.214 256.89 142.55 256.554 142.55 256.14V212.17C142.55 211.756 142.214 211.42 141.8 211.42Z" fill="white"/>
<path d="M365.84 245.6C365.846 258.383 362.346 270.922 355.722 281.854C349.097 292.786 339.602 301.693 328.269 307.605C316.936 313.517 304.199 316.208 291.443 315.385C278.686 314.563 266.4 310.258 255.92 302.94C255.04 302.323 254.018 301.938 252.95 301.823C251.882 301.708 250.801 301.865 249.81 302.28L231.55 310L239.24 291.75C239.659 290.76 239.82 289.68 239.706 288.611C239.592 287.542 239.208 286.519 238.59 285.64C232.305 276.637 228.228 266.281 226.69 255.41C225.151 244.539 226.195 233.458 229.736 223.065C233.277 212.672 239.216 203.259 247.071 195.588C254.927 187.917 264.478 182.204 274.953 178.912C285.427 175.619 296.53 174.84 307.361 176.636C318.193 178.433 328.449 182.755 337.299 189.253C346.15 195.751 353.346 204.242 358.304 214.038C363.262 223.834 365.844 234.66 365.84 245.64V245.6Z" fill="#DAA900"/>
<path d="M329.67 234.35V256.86H307.17V279.36H284.67V256.86H262.17V234.35H284.67V211.85H307.17V234.35H329.67Z" fill="white"/>
</svg>
